packages/tokens/icons/sign/size32Px.svg

<svg viewBox="0 0 32 32" fill="none" xmlns="http://www.w3.org/2000/svg" width="1em" height="1em"><path d="M4.5 8C4.5 7.17157 5.17157 6.5 6 6.5L23.6198 6.5C23.7423 6.5 23.8605 6.54494 23.952 6.62629L24.2825 6.25445L23.952 6.6263L27.327 9.6263C27.5507 9.82519 27.5507 10.1748 27.327 10.3737L23.952 13.3737C23.8605 13.4551 23.7423 13.5 23.6198 13.5L6 13.5C5.17157 13.5 4.5 12.8284 4.5 12L4.5 8Z" stroke="currentColor"/><path d="M17.5 6V3.5C17.5 2.94772 17.0523 2.5 16.5 2.5L15.5 2.5C14.9477 2.5 14.5 2.94772 14.5 3.5V6M14.5 13.5V17.5M17.5 13.5L17.5 17.5M14.5 24.5V28.5C14.5 29.0523 14.9477 29.5 15.5 29.5H16.5C17.0523 29.5 17.5 29.0523 17.5 28.5V24.5" stroke="currentColor" stroke-linecap="round"/><path d="M27.5 19C27.5 18.1716 26.8284 17.5 26 17.5L8.3802 17.5C8.25774 17.5 8.13954 17.5449 8.04802 17.6263L7.71749 17.2544L8.04802 17.6263L4.67302 20.6263C4.44926 20.8252 4.44926 21.1748 4.67302 21.3737L8.04802 24.3737C8.13954 24.4551 8.25774 24.5 8.3802 24.5L26 24.5C26.8284 24.5 27.5 23.8284 27.5 23V19Z" stroke="currentColor"/></svg>

<svg xmlns="http://www.w3.org/2000/svg" fill="none" viewBox="0 0 32 32" width="1em" height="1em"><path stroke="currentColor" d="M4.5 8A1.5 1.5 0 0 1 6 6.5h17.62a.5.5 0 0 1 .332.126l.33-.372-.33.372 3.375 3a.5.5 0 0 1 0 .748l-3.375 3a.5.5 0 0 1-.332.126H6A1.5 1.5 0 0 1 4.5 12V8Z"/><path stroke="currentColor" stroke-linecap="round" d="M17.5 6V3.5a1 1 0 0 0-1-1h-1a1 1 0 0 0-1 1V6m0 7.5v4m3-4v4m-3 7v4a1 1 0 0 0 1 1h1a1 1 0 0 0 1-1v-4"/><path stroke="currentColor" d="M27.5 19a1.5 1.5 0 0 0-1.5-1.5H8.38a.5.5 0 0 0-.332.126l-.33-.372.33.372-3.375 3a.5.5 0 0 0 0 .748l3.375 3a.5.5 0 0 0 .332.126H26a1.5 1.5 0 0 0 1.5-1.5v-4Z"/></svg>
